X:1
T:Title
L:1/8
Q:1/4=110
M:4/4
K:F
V:1 treble nm="Church Organ, Staff"
V:1
 c2 =B2 c2 A2 | G2 F2 G2 A2 | c2 BA AG F2 | f2 f2 d2 c2 | d2 ^c2 d2 A2 | B2 F2 G2 A2 | %6
w: By~Rev.~R.~F.~Smith * * *||||||
 B2 A_A =AG F2 | d2 d2 c2 d2 | d2 d2 cB A2- | AAGB AG F2 | F2 F2 GA B2 | c2 d2 e2 ^c2 | %12
w: ||||||
 e2 f2 ed c2 | c2 d2 cB A2 | A2 c2 BAGA | FB G2- G/ z/ F F2- | F2 z2 z4 |] %17
w: |||||

